X:526
T: Yijiuerjiunian
N: C1944
O: China, Henan Xinxian
S: IV, 125]
R: Xiaodiao, Shihen]
M: 2/4
L: 1/16
K: G
B,2B,2B,2G2 | E2D6
E2d2d2B2 | B2A6
B2BdB2BA | A2A2G4 | G2GAE4 | D8
A2G2E2E2 | D8
E2A2A2AA | G2AGE4 | G2AGE2E2 | D8

